packages/dnb-eufemia/assets/icons/thumbs_up.svg

<svg width="16" height="16" viewBox="0 0 16 16" fill="none" xmlns="http://www.w3.org/2000/svg">
<path d="M7.93772 3.8938L7.27139 3.54955L7.93772 3.8938ZM5.37371 6.75674L4.89927 6.17585L4.89466 6.17967L5.37371 6.75674ZM5.21617 13.7929L4.79259 14.4119L5.21617 13.7929ZM12.2336 14.8922L12.4159 15.6197L12.2336 14.8922ZM13.7436 12.6161L13.131 12.1834L12.933 12.4637L13.0157 12.7968L13.7436 12.6161ZM14.2369 10.7002L13.598 10.3073L13.4435 10.5587L13.5017 10.8481L14.2369 10.7002ZM14.4975 8.76188L13.8599 8.36706L13.6841 8.65088L13.7774 8.97142L14.4975 8.76188ZM14.9926 7.56934L15.7382 7.65067L15.7391 7.6423L15.7398 7.63391L14.9926 7.56934ZM14.4734 6.16975L13.9451 6.70206L13.9451 6.70208L14.4734 6.16975ZM13.546 5.67412L13.6888 4.93784L13.546 5.67412ZM10.6876 5.63589L10.0021 5.33181C9.89846 5.56538 9.9209 5.83561 10.0616 6.04888C10.2023 6.26216 10.4419 6.38914 10.6974 6.38582L10.6876 5.63589ZM9.86783 1.0142L9.74215 1.75359L9.75008 1.75494L9.75803 1.75612L9.86783 1.0142ZM1.01302 7.29942L1.75295 7.42192L1.75295 7.42191L1.01302 7.29942ZM1 10.3182L0.250001 10.3183V10.3183L1 10.3182ZM1.02021 13.3511L1.75358 13.194L1.75357 13.194L1.02021 13.3511ZM1.50641 13.8041L1.38757 14.5446L1.38758 14.5446L1.50641 13.8041ZM4.34726 13.8042L4.2313 13.0632L4.23128 13.0632L4.34726 13.8042ZM15.7398 7.63391C15.806 6.86811 15.5477 6.17923 15.0018 5.63742L13.9451 6.70208C14.1812 6.93638 14.2726 7.1903 14.2454 7.50478L15.7398 7.63391ZM15.0018 5.63744C14.629 5.26743 14.2029 5.03753 13.6888 4.93784L13.4032 6.4104C13.6169 6.45184 13.777 6.5352 13.9451 6.70206L15.0018 5.63744ZM1.4014 6.07391C1.00907 6.092 0.732615 6.31744 0.577449 6.5064C0.418584 6.69986 0.312519 6.93877 0.273093 7.17693L1.75295 7.42191C1.75001 7.4397 1.74727 7.44544 1.73669 7.45833C1.7298 7.46672 1.64657 7.56419 1.4705 7.57231L1.4014 6.07391ZM0.273095 7.17692C0.266353 7.21764 0.264269 7.25231 0.263985 7.2565C0.263127 7.26916 0.262567 7.28096 0.262189 7.28996C0.261415 7.30839 0.260816 7.3295 0.260314 7.35117C0.259294 7.39524 0.258392 7.45466 0.257575 7.52707C0.255935 7.67258 0.254544 7.8795 0.253419 8.14037C0.251166 8.66256 0.249954 9.40616 0.250001 10.3183L1.75 10.3182C1.74995 9.40703 1.75117 8.66589 1.75341 8.14684C1.75453 7.88708 1.7559 7.68425 1.75748 7.54399C1.75827 7.47352 1.7591 7.42105 1.75991 7.38587C1.76033 7.36791 1.76067 7.35756 1.76087 7.35289C1.76199 7.3263 1.76154 7.37006 1.75295 7.42192L0.273095 7.17692ZM0.250001 10.3183C0.25007 11.5832 0.250801 12.324 0.253697 12.7588C0.255139 12.9751 0.257146 13.1219 0.260118 13.2216C0.262304 13.2948 0.265513 13.4086 0.286853 13.5082L1.75357 13.194C1.76627 13.2533 1.76265 13.2842 1.75945 13.1769C1.75704 13.0959 1.7551 12.9641 1.75366 12.7488C1.75081 12.3201 1.75007 11.5849 1.75 10.3182L0.250001 10.3183ZM0.286841 13.5082C0.403183 14.0514 0.855232 14.4592 1.38757 14.5446L1.62526 13.0635C1.66054 13.0692 1.68607 13.0841 1.70367 13.1005C1.72117 13.1168 1.74341 13.1466 1.75358 13.194L0.286841 13.5082ZM1.38758 14.5446C1.44799 14.5543 1.51384 14.5563 1.52599 14.5568C1.55856 14.5581 1.59808 14.5592 1.64139 14.5602C1.72874 14.5621 1.84415 14.5636 1.97651 14.5648C2.24191 14.5672 2.58428 14.5684 2.9257 14.5685C3.26711 14.5685 3.60966 14.5673 3.87542 14.5649C4.00797 14.5637 4.12358 14.5622 4.21118 14.5603C4.26242 14.5592 4.38447 14.5575 4.46323 14.5452L4.23128 13.0632C4.27954 13.0557 4.29366 13.0582 4.17891 13.0607C4.10051 13.0623 3.99208 13.0638 3.86188 13.065C3.60215 13.0673 3.26444 13.0685 2.92578 13.0685C2.58712 13.0685 2.2496 13.0672 1.99024 13.0649C1.86022 13.0637 1.75204 13.0622 1.67394 13.0605C1.63453 13.0597 1.60587 13.0588 1.58721 13.058C1.54814 13.0565 1.57972 13.0562 1.62525 13.0635L1.38758 14.5446ZM4.46321 14.5452C5.06832 14.4505 5.51413 13.9631 5.58537 13.3727L4.09617 13.193C4.10237 13.1416 4.14882 13.0761 4.2313 13.0632L4.46321 14.5452ZM5.53086 6.96999C5.46755 6.78664 5.35842 6.59934 5.21561 6.44627C5.08988 6.31149 4.8236 6.08319 4.43609 6.08188L4.43105 7.58187C4.31471 7.58148 4.23058 7.54505 4.18727 7.52062C4.14452 7.49652 4.1233 7.47432 4.11881 7.46951C4.11365 7.46398 4.11587 7.46787 4.11302 7.4596L5.53086 6.96999ZM11.3732 5.93996C11.7523 5.08535 12.0391 3.87627 11.9686 2.8019C11.9332 2.26258 11.8037 1.69433 11.49 1.22072C11.1592 0.721293 10.6511 0.371947 9.97763 0.272278L9.75803 1.75612C10.0007 1.79204 10.1383 1.89629 10.2394 2.04898C10.3576 2.22748 10.4462 2.50985 10.4718 2.90015C10.5233 3.68503 10.3039 4.6512 10.0021 5.33181L11.3732 5.93996ZM9.99352 0.274803C9.74896 0.233233 9.39635 0.234357 9.03961 0.35369C8.66471 0.479095 8.25847 0.747299 8.01945 1.24672L9.37248 1.89427C9.39027 1.8571 9.40924 1.83654 9.42675 1.82226C9.44644 1.8062 9.47493 1.78977 9.51544 1.77622C9.55672 1.76241 9.60366 1.75397 9.65051 1.75109C9.69868 1.74814 9.73236 1.75193 9.74215 1.75359L9.99352 0.274803ZM5.37371 6.75674C5.84814 7.33762 5.84822 7.33755 5.8483 7.33749C5.84834 7.33746 5.84843 7.33738 5.84851 7.33732C5.84866 7.3372 5.84884 7.33705 5.84904 7.33688C5.84946 7.33654 5.84999 7.33611 5.85063 7.33558C5.85192 7.33453 5.85365 7.3331 5.85582 7.33131C5.86017 7.32773 5.86628 7.32269 5.87404 7.31625C5.88957 7.30335 5.91176 7.28482 5.93986 7.26107C5.99603 7.21359 6.07594 7.14515 6.17353 7.05917C6.36832 6.88754 6.63546 6.64431 6.92566 6.35705C7.48958 5.79885 8.20313 5.01406 8.60405 4.23805L7.27139 3.54955C6.98517 4.10355 6.41672 4.75023 5.87042 5.291C5.60551 5.55322 5.36049 5.77635 5.18189 5.93371C5.09279 6.01222 5.0207 6.07393 4.97154 6.11548C4.94698 6.13625 4.92817 6.15195 4.91588 6.16216C4.90973 6.16726 4.90521 6.17099 4.90241 6.1733C4.90101 6.17445 4.90005 6.17524 4.89952 6.17567C4.89926 6.17589 4.89911 6.17601 4.89907 6.17604C4.89905 6.17606 4.89905 6.17605 4.89909 6.17602C4.89911 6.17601 4.89916 6.17597 4.89917 6.17596C4.89922 6.17592 4.89928 6.17587 5.37371 6.75674ZM8.60405 4.23805C8.86577 3.73146 9.00521 3.21856 9.10858 2.80542C9.22266 2.3495 9.28087 2.08568 9.37248 1.89427L8.01945 1.24672C7.84356 1.61423 7.74196 2.08757 7.65344 2.44133C7.55422 2.83786 7.44829 3.20715 7.27139 3.54955L8.60405 4.23805ZM13.6888 4.93784C13.5218 4.90545 13.2243 4.89489 12.964 4.88859C12.6705 4.88149 12.3179 4.87891 11.9812 4.87854C11.6436 4.87817 11.318 4.88002 11.0771 4.88196C10.9565 4.88293 10.8569 4.88393 10.7874 4.88468C10.7527 4.88506 10.7254 4.88537 10.7068 4.88559C10.6975 4.88571 10.6903 4.88579 10.6855 4.88585C10.683 4.88589 10.6812 4.88591 10.6799 4.88592C10.6793 4.88593 10.6788 4.88594 10.6785 4.88594C10.6783 4.88595 10.6782 4.88595 10.6781 4.88595C10.678 4.88595 10.678 4.88595 10.678 4.88595C10.6779 4.88595 10.6779 4.88595 10.6876 5.63589C10.6974 6.38582 10.6974 6.38582 10.6974 6.38582C10.6974 6.38582 10.6974 6.38582 10.6974 6.38582C10.6975 6.38582 10.6976 6.38582 10.6977 6.38582C10.698 6.38582 10.6984 6.38581 10.699 6.3858C10.7001 6.38579 10.7019 6.38577 10.7042 6.38574C10.7088 6.38568 10.7157 6.3856 10.7247 6.38549C10.7428 6.38527 10.7695 6.38496 10.8037 6.38459C10.872 6.38385 10.9702 6.38287 11.0891 6.38191C11.3273 6.37999 11.648 6.37817 11.9796 6.37854C12.312 6.3789 12.6513 6.38147 12.9278 6.38815C13.0664 6.39151 13.1846 6.39579 13.2761 6.401C13.3813 6.40699 13.4134 6.41237 13.4032 6.4104L13.6888 4.93784ZM4.79259 14.4119C6.00256 15.2399 7.31501 15.338 8.66075 15.5449L8.88875 14.0623C7.37707 13.8299 6.49744 13.761 5.63976 13.174L4.79259 14.4119ZM8.66075 15.5449C9.4004 15.6587 10.1223 15.728 10.7577 15.7456C11.3793 15.7627 11.9677 15.7321 12.4159 15.6197L12.0512 14.1647C11.802 14.2272 11.3754 14.2621 10.7991 14.2462C10.2366 14.2306 9.5778 14.1683 8.88875 14.0623L8.66075 15.5449ZM12.4159 15.6197C12.4158 15.6197 12.4161 15.6197 12.4168 15.6195C12.4175 15.6193 12.4185 15.6191 12.4198 15.6187C12.4229 15.618 12.4257 15.6173 12.4305 15.6161C12.4394 15.614 12.4511 15.6111 12.4648 15.6077C12.4923 15.6008 12.5273 15.5917 12.5681 15.5802C12.6495 15.5573 12.7538 15.5247 12.8716 15.4797C13.1034 15.391 13.4056 15.247 13.6921 15.0169C13.9823 14.784 14.2663 14.4539 14.4299 14.0008C14.5948 13.5443 14.6166 13.0198 14.4715 12.4354L13.0157 12.7968C13.1002 13.1371 13.0686 13.3543 13.0191 13.4914C12.9683 13.632 12.8771 13.7477 12.7529 13.8474C12.4825 14.0645 12.1443 14.1414 12.0512 14.1647L12.4159 15.6197ZM14.3562 13.0489C14.608 12.6923 14.8361 12.3314 14.9558 11.9123C15.0814 11.4728 15.07 11.0385 14.9722 10.5522L13.5017 10.8481C13.5684 11.1798 13.554 11.3587 13.5135 11.5003C13.4672 11.6622 13.3663 11.8503 13.131 12.1834L14.3562 13.0489ZM14.8758 11.093C15.1275 10.6838 15.3082 10.2885 15.3644 9.84292C15.4204 9.39892 15.3427 8.98212 15.2177 8.55234L13.7774 8.97142C13.8786 9.31916 13.8949 9.50677 13.8762 9.65518C13.8577 9.80204 13.7949 9.98712 13.598 10.3073L14.8758 11.093ZM15.1352 9.15669C15.4005 8.72818 15.6619 8.35006 15.7382 7.65067L14.247 7.48802C14.2124 7.80585 14.1397 7.9152 13.8599 8.36706L15.1352 9.15669ZM4.43609 6.08188C4.29807 6.08142 1.64232 6.06279 1.4014 6.07391L1.4705 7.57231C1.47042 7.57232 1.48223 7.57191 1.51344 7.57149C1.54156 7.57112 1.57851 7.57081 1.62375 7.57059C1.71407 7.57015 1.83289 7.57004 1.97143 7.57019C2.24825 7.5705 2.59956 7.57185 2.95013 7.57354C3.64773 7.57689 4.34846 7.5816 4.43105 7.58187L4.43609 6.08188ZM4.89466 6.17967L4.34289 6.63773L5.301 7.79186L5.85277 7.33381L4.89466 6.17967ZM5.63976 13.174C5.66843 13.1936 5.67048 13.2021 5.65003 13.1773C5.63272 13.1563 5.61152 13.1263 5.58896 13.0899C5.56709 13.0547 5.54868 13.0211 5.53589 12.9966C5.52966 12.9846 5.52516 12.9755 5.52267 12.9704C5.52143 12.9679 5.52072 12.9664 5.52057 12.966C5.52049 12.9659 5.52056 12.966 5.52077 12.9665C5.52088 12.9667 5.52102 12.967 5.5212 12.9674C5.52129 12.9676 5.52139 12.9678 5.5215 12.968C5.52156 12.9682 5.52161 12.9683 5.52167 12.9684C5.5217 12.9685 5.52175 12.9686 5.52176 12.9686C5.52181 12.9687 5.52186 12.9688 4.84077 13.2829C4.15968 13.5969 4.15973 13.597 4.15978 13.5971C4.1598 13.5972 4.15985 13.5973 4.15989 13.5973C4.15995 13.5975 4.16003 13.5976 4.1601 13.5978C4.16025 13.5981 4.16041 13.5985 4.16059 13.5989C4.16093 13.5996 4.16132 13.6004 4.16176 13.6014C4.16263 13.6032 4.16368 13.6055 4.1649 13.608C4.16735 13.6132 4.1705 13.6198 4.17433 13.6277C4.18197 13.6433 4.19239 13.6642 4.20535 13.6891C4.23094 13.7383 4.26797 13.806 4.31435 13.8807C4.39069 14.0038 4.55277 14.2477 4.79259 14.4119L5.63976 13.174ZM5.59077 13.2805L5.57194 7.21247L4.07195 7.21712L4.09077 13.2852L5.59077 13.2805Z" fill="black"/>
</svg>

<svg width="16" height="16" viewBox="0 0 16 16" fill="none" xmlns="http://www.w3.org/2000/svg"><path d="M7.938 3.894 7.27 3.55l.667.344ZM5.374 6.757l-.475-.581-.004.004.479.577Zm-.158 7.036-.423.619.423-.62Zm7.018 1.1.182.727-.182-.728Zm1.51-2.277-.613-.433-.198.28.083.334.728-.18Zm.493-1.916-.639-.393-.155.252.059.29.735-.149Zm.26-1.938-.637-.395-.176.284.093.32.72-.21Zm.496-1.193.745.082.001-.009v-.008l-.746-.065Zm-.52-1.4-.528.533.528-.532Zm-.927-.495.143-.736-.143.736Zm-2.858-.038-.686-.304a.75.75 0 0 0 .695 1.054l-.01-.75Zm-.82-4.622-.126.74h.008l.008.002.11-.742ZM1.013 7.3l.74.123-.74-.123ZM1 10.32H.25 1Zm.02 3.032.734-.157-.734.157Zm.486.453-.118.74.118-.74Zm2.841 0-.116-.74.116.74Zm11.393-6.17a2.44 2.44 0 0 0-.738-1.997l-1.057 1.065a.943.943 0 0 1 .3.803l1.495.129Zm-.738-1.997c-.373-.37-.8-.6-1.313-.7l-.286 1.473a.98.98 0 0 1 .542.292l1.057-1.065Zm-13.6.437a1.142 1.142 0 0 0-.825.432 1.444 1.444 0 0 0-.304.67l1.48.246a.06.06 0 0 1-.016.036.368.368 0 0 1-.267.114l-.069-1.498ZM.272 7.177a1.313 1.313 0 0 0-.013.174 533.185 533.185 0 0 0-.01 2.967h1.5a530.93 530.93 0 0 1 .007-2.774 14.41 14.41 0 0 1 .004-.191c.001-.027 0 .017-.008.069l-1.48-.245ZM.25 10.318c0 1.265 0 2.006.004 2.44.001.217.003.364.006.464.002.073.006.187.027.286l1.467-.314c.012.06.009.09.005-.017a20.718 20.718 0 0 1-.005-.428 419.61 419.61 0 0 1-.004-2.43H.25Zm.037 3.19c.116.543.568.951 1.1 1.037l.238-1.482a.154.154 0 0 1 .079.037c.017.017.04.047.05.094l-1.467.314Zm1.1 1.037c.061.01.127.011.139.012l.115.003.336.005a115.257 115.257 0 0 0 2.234-.005c.051 0 .173-.003.252-.015l-.232-1.482c.049-.007.063-.005-.052-.002l-.317.004a112.108 112.108 0 0 1-2.275-.007c-.039-.002-.007-.002.038.005l-.237 1.482Zm3.076 0a1.342 1.342 0 0 0 1.122-1.172l-1.489-.18a.159.159 0 0 1 .135-.13l.232 1.482ZM5.531 6.97a1.503 1.503 0 0 0-.315-.524c-.126-.135-.392-.363-.78-.364l-.005 1.5a.501.501 0 0 1-.244-.061.284.284 0 0 1-.068-.051c-.005-.006-.003-.002-.006-.01l1.418-.49Zm5.842-1.03c.38-.855.666-2.064.596-3.138-.036-.54-.165-1.108-.479-1.581A2.13 2.13 0 0 0 9.978.272l-.22 1.484a.64.64 0 0 1 .481.293c.119.178.207.46.233.851.051.785-.168 1.751-.47 2.432l1.371.608ZM9.993.275a2.03 2.03 0 0 0-.953.079 1.712 1.712 0 0 0-1.02.893l1.352.647a.198.198 0 0 1 .055-.072.28.28 0 0 1 .088-.046.537.537 0 0 1 .227-.022l.252-1.48Zm-4.62 6.482.475.58h.001l.002-.001.005-.005a5.718 5.718 0 0 0 .084-.07 17.964 17.964 0 0 0 .986-.904C7.49 5.8 8.203 5.014 8.604 4.238L7.271 3.55c-.286.554-.854 1.2-1.4 1.741a16.464 16.464 0 0 1-.969.882l-.002.003.474.58Zm3.231-2.519c.262-.507.401-1.02.505-1.433.114-.456.172-.72.263-.91L8.02 1.246c-.175.367-.277.84-.366 1.194-.099.397-.205.766-.382 1.109l1.333.688Zm5.085.7a5.395 5.395 0 0 0-.725-.05c-.293-.007-.646-.01-.983-.01a101.174 101.174 0 0 0-1.274.008h-.029l.01.75.01.75h.026a60.81 60.81 0 0 1 .365-.004 79.197 79.197 0 0 1 1.839.007c.138.003.257.007.348.012.105.006.137.011.127.01l.286-1.473Zm-8.896 9.474c1.21.828 2.522.926 3.868 1.133l.228-1.483c-1.512-.232-2.392-.301-3.25-.888l-.846 1.238Zm3.868 1.133c.74.114 1.461.183 2.097.2.621.018 1.21-.013 1.658-.125l-.365-1.455c-.249.062-.676.097-1.252.081a15.74 15.74 0 0 1-1.91-.184l-.228 1.483Zm3.755.075.004-.001a.472.472 0 0 0 .045-.011 3.685 3.685 0 0 0 .407-.128c.231-.089.534-.233.82-.463.29-.233.574-.563.738-1.016.165-.457.187-.981.042-1.566l-1.456.362c.084.34.053.557.003.694a.806.806 0 0 1-.266.356c-.27.218-.609.294-.702.318l.365 1.455Zm1.94-2.571c.252-.357.48-.718.6-1.137.125-.44.114-.873.016-1.36l-1.47.296c.066.332.052.51.011.652-.046.162-.147.35-.382.683l1.225.866Zm.52-1.956c.252-.41.432-.804.488-1.25.056-.444-.021-.86-.146-1.29l-1.44.418c.1.348.117.536.098.684-.018.147-.081.332-.278.652l1.278.786Zm.26-1.936c.264-.429.526-.807.602-1.506l-1.491-.163c-.035.318-.107.427-.387.88l1.275.789Zm-10.7-3.075c-.138 0-2.794-.02-3.035-.008l.07 1.498h.042l.11-.001h.348c.277 0 .629 0 .98.003l1.48.008.005-1.5Zm.459.098-.552.458.958 1.154.552-.458-.958-1.154Zm.745 6.994c.028.02.03.028.01.003a1.463 1.463 0 0 1-.13-.211.014.014 0 0 1 .002.002 244.695 244.695 0 0 1-1.362.63c0 .002.001.002.002.003l.003.007a1.991 1.991 0 0 0 .04.081c.026.05.063.117.11.192.076.123.238.367.478.53l.847-1.237Zm-.05.107-.018-6.069-1.5.005.019 6.068 1.5-.005Z" fill="#000"/></svg>
